X:1
T:Eventide, 10.10.10.10
T:Eventide, 10.10.10.10
T:William Henry Monk, 1861
T:Public Domain Courtesy of the Cyber Hymnal™
C:William Henry Monk, 1861
Z:Public Domain
Z:Courtesy of the Cyber Hymnal™
%%score ( 1 2 ) ( 3 4 )
L:1/8
Q:1/4=110
M:4/4
K:Eb
V:1 treble 
V:2 treble 
V:3 bass 
V:4 bass 
V:1
 [EG]4 [DG]2 [DF]2 | E4 [EB]4 | [Ec]2 [DB]2 [EB]2 [FA]2 | [EG]8 | [EG]4 [EA]2 [EB]2 | [Ec]4 [EB]4 | %6
 [EA]2 F2 [EG]2 [E=A]2 | [DB]8 | [EG]4 [DG]2 [DF]2 | E4 [EB]4 | [EB]2 [EA]2 [=EA]2 [EG]2 | F8 | %12
 [DF]4 [EG]2 [DA]2 | [EG]2 [DF]2 E2 [FA]2 | [EG]4 [DF]4 x2 | E8 |] %16
V:2
 x8 | E4 x4 | x8 | x8 | x8 | x8 | x8 | x8 | x8 | E4 x4 | x8 | F8 | x8 | x4 E2 x2 | x10 | E8 |] %16
V:3
 [E,B,]4 [B,,B,]2 [B,,A,]2 | [C,G,]4 [G,,E,]4 | [A,,E,]2 [B,,B,]2 [C,B,]2 [D,B,]2 | [E,B,]8 | %4
 B,4 [C,A,]2 [B,,G,]2 | [A,,A,]4 [E,G,]4 | [F,C]2 [D,B,]2 [E,B,]2 [C,E,]2 | [B,,F,]8 | %8
 (G,2 A,2) [B,,B,]2 [B,,A,]2 | [C,G,]4 (E2 D2) | C2 [B,,C] [C,C]2 [C,B,]2 x | [F,A,]8 | %12
 [A,B,]4 [G,B,]2 [F,B,]2 | [E,B,]2 [B,,A,]2 [C,G,]2 [A,,C]2 | B,6 z2 A,2 | [E,G,]8 |] %16
V:4
 x8 | x8 | x8 | x8 | (E,2 D,2) x4 | x8 | x8 | x8 | E,4 x4 | x4 G,,4 | A,,3 C x4 | x8 | x8 | x8 | %14
 B,,4 B,,4 x2 | x8 |] %16

